;FLAVOR:Marlin
;TIME:1606
;Filament used: 1.03001m
;Layer height: 0.2
;MINX:-9.8
;MINY:-9.8
;MINZ:0.3
;MAXX:9.8
;MAXY:9.8
;MAXZ:19.9
;Generated with Cura_SteamEngine 4.6.1
M104 S200
M105
M109 S200
M82 ;absolute extrusion mode
G28 ;Home
G92 E0
G92 E0
G1 F1500 E-6.5
;LAYER_COUNT:99
;LAYER:0
M107
;MESH:20mm_cube.stl
G0 F3600 X-9.4 Y9.4 Z0.3
;TYPE:WALL-INNER
G1 F1500 E0
G1 F900 X-9.4 Y-9.4 E0.93794
G1 X9.4 Y-9.4 E1.87587
G1 X9.4 Y9.4 E2.81381
G1 X-9.4 Y9.4 E3.75174
G0 F3600 X-9.8 Y9.8
;TYPE:WALL-OUTER
G1 F900 X-9.8 Y-9.8 E4.72959
G1 X9.8 Y-9.8 E5.70744
G1 X9.8 Y9.8 E6.68529
G1 X-9.8 Y9.8 E7.66314
G0 F3600 X-9.8 Y9.6
G0 X-9.01 Y9.01
;TYPE:SKIN
G1 F900 X-9.01 Y-9.01 E8.56216
G1 X9.01 Y-9.01 E9.46118
G1 X9.01 Y9.01 E10.3602
G1 X-9.01 Y9.01 E11.25922
G0 F3600 X-8.829 Y8.706
G1 F900 X-8.706 Y8.829 E11.2679
G0 F3600 X-8.14 Y8.829
G1 F900 X-8.829 Y8.14 E11.31651
G0 F3600 X-8.829 Y7.575
G1 F900 X-7.575 Y8.829 E11.40499
G0 F3600 X-7.009 Y8.829
G1 F900 X-8.829 Y7.009 E11.5334
G0 F3600 X-8.829 Y6.443
G1 F900 X-6.443 Y8.829 E11.70174
G0 F3600 X-5.878 Y8.829
G1 F900 X-8.829 Y5.878 E11.90995
G0 F3600 X-8.829 Y5.312
G1 F900 X-5.312 Y8.829 E12.1581
G0 F3600 X-4.746 Y8.829
G1 F900 X-8.829 Y4.746 E12.44617
G0 F3600 X-8.829 Y4.181
G1 F900 X-4.181 Y8.829 E12.77412
G0 F3600 X-3.615 Y8.829
G1 F900 X-8.829 Y3.615 E13.14199
G0 F3600 X-8.829 Y3.049
G1 F900 X-3.049 Y8.829 E13.5498
G0 F3600 X-2.484 Y8.829
G1 F900 X-8.829 Y2.484 E13.99748
G0 F3600 X-8.829 Y1.918
G1 F900 X-1.918 Y8.829 E14.48508
G0 F3600 X-1.352 Y8.829
G1 F900 X-8.829 Y1.352 E15.01263
G0 F3600 X-8.829 Y0.787
G1 F900 X-.787 Y8.829 E15.58003
G0 F3600 X-.221 Y8.829
G1 F900 X-8.829 Y0.221 E16.18737
G0 F3600 X-8.829 Y-.344
G1 F900 X0.344 Y8.829 E16.83458
G0 F3600 X0.91 Y8.829
G1 F900 X-8.829 Y-.91 E17.52172
G0 F3600 X-8.829 Y-1.475
G1 F900 X1.475 Y8.829 E18.24872
G0 F3600 X2.041 Y8.829
G1 F900 X-8.829 Y-2.041 E19.01566
G0 F3600 X-8.829 Y-2.607
G1 F900 X2.607 Y8.829 E19.82253
G0 F3600 X3.172 Y8.829
G1 F900 X-8.829 Y-3.172 E20.66927
G0 F3600 X-8.829 Y-3.738
G1 F900 X3.738 Y8.829 E21.55594
G0 F3600 X4.304 Y8.829
G1 F900 X-8.829 Y-4.304 E22.48254
G0 F3600 X-8.829 Y-4.869
G1 F900 X4.869 Y8.829 E23.44901
G0 F3600 X5.435 Y8.829
G1 F900 X-8.829 Y-5.435 E24.45541
G0 F3600 X-8.829 Y-6.001
G1 F900 X6.001 Y8.829 E25.50175
G0 F3600 X6.566 Y8.829
G1 F900 X-8.829 Y-6.566 E26.58795
G0 F3600 X-8.829 Y-7.132
G1 F900 X7.132 Y8.829 E27.71408
G0 F3600 X7.698 Y8.829
G1 F900 X-8.829 Y-7.698 E28.88015
G0 F3600 X-8.829 Y-8.263
G1 F900 X8.263 Y8.829 E30.08608
G0 F3600 X8.829 Y8.829
G1 F900 X-8.829 Y-8.829 E31.33195
G0 F3600 X-8.263 Y-8.829
G1 F900 X8.829 Y8.263 E32.53788
G0 F3600 X8.829 Y7.698
G1 F900 X-7.698 Y-8.829 E33.70395
G0 F3600 X-7.132 Y-8.829
G1 F900 X8.829 Y7.132 E34.83009
G0 F3600 X8.829 Y6.566
G1 F900 X-6.566 Y-8.829 E35.91629
G0 F3600 X-6.001 Y-8.829
G1 F900 X8.829 Y6.001 E36.96262
G0 F3600 X8.829 Y5.435
G1 F900 X-5.435 Y-8.829 E37.96903
G0 F3600 X-4.869 Y-8.829
G1 F900 X8.829 Y4.869 E38.93549
G0 F3600 X8.829 Y4.304
G1 F900 X-4.304 Y-8.829 E39.8621
G0 F3600 X-3.738 Y-8.829
G1 F900 X8.829 Y3.738 E40.74877
G0 F3600 X8.829 Y3.172
G1 F900 X-3.172 Y-8.829 E41.5955
G0 F3600 X-2.607 Y-8.829
G1 F900 X8.829 Y2.607 E42.40237
G0 F3600 X8.829 Y2.041
G1 F900 X-2.041 Y-8.829 E43.16931
G0 F3600 X-1.475 Y-8.829
G1 F900 X8.829 Y1.475 E43.89632
G0 F3600 X8.829 Y0.91
G1 F900 X-.91 Y-8.829 E44.58345
G0 F3600 X-.344 Y-8.829
G1 F900 X8.829 Y0.344 E45.23066
G0 F3600 X8.829 Y-.221
G1 F900 X0.221 Y-8.829 E45.838
G0 F3600 X0.787 Y-8.829
G1 F900 X8.829 Y-.787 E46.40541
G0 F3600 X8.829 Y-1.352
G1 F900 X1.352 Y-8.829 E46.93295
G0 F3600 X1.918 Y-8.829
G1 F900 X8.829 Y-1.918 E47.42056
G0 F3600 X8.829 Y-2.484
G1 F900 X2.484 Y-8.829 E47.86823
G0 F3600 X3.049 Y-8.829
G1 F900 X8.829 Y-3.049 E48.27604
G0 F3600 X8.829 Y-3.615
G1 F900 X3.615 Y-8.829 E48.64392
G0 F3600 X4.181 Y-8.829
G1 F900 X8.829 Y-4.181 E48.97186
G0 F3600 X8.829 Y-4.746
G1 F900 X4.746 Y-8.829 E49.25994
G0 F3600 X5.312 Y-8.829
G1 F900 X8.829 Y-5.312 E49.50808
G0 F3600 X8.829 Y-5.878
G1 F900 X5.878 Y-8.829 E49.71629
G0 F3600 X6.443 Y-8.829
G1 F900 X8.829 Y-6.443 E49.88463
G0 F3600 X8.829 Y-7.009
G1 F900 X7.009 Y-8.829 E50.01304
G0 F3600 X7.575 Y-8.829
G1 F900 X8.829 Y-7.575 E50.10152
G0 F3600 X8.829 Y-8.14
G1 F900 X8.14 Y-8.829 E50.15013
G0 F3600 X8.706 Y-8.829
G1 F900 X8.829 Y-8.706 E50.15881
;MESH:NONMESH
G0 F600 X8.829 Y-8.706 Z0.5
G0 F3600 X-9.33 Y9.33
G0 X-9.4 Y9.4
;TIME_ELAPSED:70.995136
;LAYER:1
M106 S255
;TYPE:WALL-INNER
;MESH:20mm_cube.stl
G1 F1350 X-9.4 Y-9.4 E50.7841
G1 X9.4 Y-9.4 E51.40939
G1 X9.4 Y9.4 E52.03468
G1 X-9.4 Y9.4 E52.65997
G0 F5400 X-9.8 Y9.8
;TYPE:WALL-OUTER
G1 F900 X-9.8 Y-9.8 E53.31187
G1 X9.8 Y-9.8 E53.96377
G1 X9.8 Y9.8 E54.61567
G1 X-9.8 Y9.8 E55.26757
G0 F5400 X-9.8 Y9.6
G0 X-9.01 Y9.01
;TYPE:SKIN
G1 F900 X-9.01 Y-9.01 E55.86692
G1 X9.01 Y-9.01 E56.46626
G1 X9.01 Y9.01 E57.06561
G1 X-9.01 Y9.01 E57.66496
G0 F5400 X-8.829 Y-8.706
G1 F900 X-8.706 Y-8.829 E57.67075
G0 F5400 X-8.14 Y-8.829
G1 F900 X-8.829 Y-8.14 E57.70315
G0 F5400 X-8.829 Y-7.575
G1 F900 X-7.575 Y-8.829 E57.76214
G0 F5400 X-7.009 Y-8.829
G1 F900 X-8.829 Y-7.009 E57.84775
G0 F5400 X-8.829 Y-6.443
G1 F900 X-6.443 Y-8.829 E57.95998
G0 F5400 X-5.878 Y-8.829
G1 F900 X-8.829 Y-5.878 E58.09878
G0 F5400 X-8.829 Y-5.312
G1 F900 X-5.312 Y-8.829 E58.26421
G0 F5400 X-4.746 Y-8.829
G1 F900 X-8.829 Y-4.746 E58.45626
G0 F5400 X-8.829 Y-4.181
G1 F900 X-4.181 Y-8.829 E58.67489
G0 F5400 X-3.615 Y-8.829
G1 F900 X-8.829 Y-3.615 E58.92014
G0 F5400 X-8.829 Y-3.049
G1 F900 X-3.049 Y-8.829 E59.19201
G0 F5400 X-2.484 Y-8.829
G1 F900 X-8.829 Y-2.484 E59.49046
G0 F5400 X-8.829 Y-1.918
G1 F900 X-1.918 Y-8.829 E59.81554
G0 F5400 X-1.352 Y-8.829
G1 F900 X-8.829 Y-1.352 E60.16723
G0 F5400 X-8.829 Y-.787
G1 F900 X-.787 Y-8.829 E60.5455
G0 F5400 X-.221 Y-8.829
G1 F900 X-8.829 Y-.221 E60.9504
G0 F5400 X-8.829 Y0.344
G1 F900 X0.344 Y-8.829 E61.38187
G0 F5400 X0.91 Y-8.829
G1 F900 X-8.829 Y0.91 E61.83996
G0 F5400 X-8.829 Y1.475
G1 F900 X1.475 Y-8.829 E62.32463
G0 F5400 X2.041 Y-8.829
G1 F900 X-8.829 Y2.041 E62.83592
G0 F5400 X-8.829 Y2.607
G1 F900 X2.607 Y-8.829 E63.37383
G0 F5400 X3.172 Y-8.829
G1 F900 X-8.829 Y3.172 E63.93832
G0 F5400 X-8.829 Y3.738
G1 F900 X3.738 Y-8.829 E64.52944
G0 F5400 X4.304 Y-8.829
G1 F900 X-8.829 Y4.304 E65.14717
G0 F5400 X-8.829 Y4.869
G1 F900 X4.869 Y-8.829 E65.79148
G0 F5400 X5.435 Y-8.829
G1 F900 X-8.829 Y5.435 E66.46242
G0 F5400 X-8.829 Y6.001
G1 F900 X6.001 Y-8.829 E67.15998
G0 F5400 X6.566 Y-8.829
G1 F900 X-8.829 Y6.566 E67.88411
G0 F5400 X-8.829 Y7.132
G1 F900 X7.132 Y-8.829 E68.63487
G0 F5400 X7.698 Y-8.829
G1 F900 X-8.829 Y7.698 E69.41225
G0 F5400 X-8.829 Y8.263
G1 F900 X8.263 Y-8.829 E70.2162
G0 F5400 X8.829 Y-8.829
G1 F900 X-8.829 Y8.829 E71.04678
G0 F5400 X-8.263 Y8.829
G1 F900 X8.829 Y-8.263 E71.85073
G0 F5400 X8.829 Y-7.698
G1 F900 X-7.698 Y8.829 E72.62811
G0 F5400 X-7.132 Y8.829
G1 F900 X8.829 Y-7.132 E73.37887
G0 F5400 X8.829 Y-6.566
G1 F900 X-6.566 Y8.829 E74.103
G0 F5400 X-6.001 Y8.829
G1 F900 X8.829 Y-6.001 E74.80056
G0 F5400 X8.829 Y-5.435
G1 F900 X-5.435 Y8.829 E75.4715
G0 F5400 X-4.869 Y8.829
G1 F900 X8.829 Y-4.869 E76.11581
G0 F5400 X8.829 Y-4.304
G1 F900 X-4.304 Y8.829 E76.73354
G0 F5400 X-3.738 Y8.829
G1 F900 X8.829 Y-3.738 E77.32466
G0 F5400 X8.829 Y-3.172
G1 F900 X-3.172 Y8.829 E77.88915
G0 F5400 X-2.607 Y8.829
G1 F900 X8.829 Y-2.607 E78.42706
G0 F5400 X8.829 Y-2.041
G1 F900 X-2.041 Y8.829 E78.93835
G0 F5400 X-1.475 Y8.829
G1 F900 X8.829 Y-1.475 E79.42302
G0 F5400 X8.829 Y-.91
G1 F900 X-.91 Y8.829 E79.88112
G0 F5400 X-.344 Y8.829
G1 F900 X8.829 Y-.344 E80.31258
G0 F5400 X8.829 Y0.221
G1 F900 X0.221 Y8.829 E80.71748
G0 F5400 X0.787 Y8.829
G1 F900 X8.829 Y0.787 E81.09575
G0 F5400 X8.829 Y1.352
G1 F900 X1.352 Y8.829 E81.44745
G0 F5400 X1.918 Y8.829
G1 F900 X8.829 Y1.918 E81.77252
G0 F5400 X8.829 Y2.484
G1 F900 X2.484 Y8.829 E82.07097
G0 F5400 X3.049 Y8.829
G1 F900 X8.829 Y3.049 E82.34284
G0 F5400 X8.829 Y3.615
G1 F900 X3.615 Y8.829 E82.58809
G0 F5400 X4.181 Y8.829
G1 F900 X8.829 Y4.181 E82.80672
G0 F5400 X8.829 Y4.746
G1 F900 X4.746 Y8.829 E82.99877
G0 F5400 X5.312 Y8.829
G1 F900 X8.829 Y5.312 E83.1642
G0 F5400 X8.829 Y5.878
G1 F900 X5.878 Y8.829 E83.30301
G0 F5400 X6.443 Y8.829
G1 F900 X8.829 Y6.443 E83.41524
G0 F5400 X8.829 Y7.009
G1 F900 X7.009 Y8.829 E83.50084
G0 F5400 X7.575 Y8.829
G1 F900 X8.829 Y7.575 E83.55983
G0 F5400 X8.829 Y8.14
G1 F900 X8.14 Y8.829 E83.59224
G0 F5400 X8.706 Y8.829
G1 F900 X8.829 Y8.706 E83.59802
;MESH:NONMESH
G0 F600 X8.829 Y8.706 Z0.7
G0 F5400 X-9.33 Y9.33
G0 X-9.4 Y9.4
;TIME_ELAPSED:138.211396
;LAYER:2
;TYPE:WALL-INNER
;MESH:20mm_cube.stl
G1 F1800 X-9.4 Y-9.4 E84.22331
G1 X9.4 Y-9.4 E84.8486
G1 X9.4 Y9.4 E85.47389
G1 X-9.4 Y9.4 E86.09918
G0 F7200 X-9.8 Y9.8
;TYPE:WALL-OUTER
G1 F900 X-9.8 Y-9.8 E86.75108
G1 X9.8 Y-9.8 E87.40298
G1 X9.8 Y9.8 E88.05488
G1 X-9.8 Y9.8 E88.70678
G0 F7200 X-9.8 Y9.6
G0 X-9.01 Y9.01
;TYPE:SKIN
G1 F900 X-9.01 Y-9.01 E89.30613
G1 X9.01 Y-9.01 E89.90547
G1 X9.01 Y9.01 E90.50482
G1 X-9.01 Y9.01 E91.10417
G0 F7200 X-8.829 Y8.706
G1 F900 X-8.706 Y8.829 E91.10995
G0 F7200 X-8.14 Y8.829
G1 F900 X-8.829 Y8.14 E91.14236
G0 F7200 X-8.829 Y7.575
G1 F900 X-7.575 Y8.829 E91.20135
G0 F7200 X-7.009 Y8.829
G1 F900 X-8.829 Y7.009 E91.28695
G0 F7200 X-8.829 Y6.443
G1 F900 X-6.443 Y8.829 E91.39918
G0 F7200 X-5.878 Y8.829
G1 F900 X-8.829 Y5.878 E91.53799
G0 F7200 X-8.829 Y5.312
G1 F900 X-5.312 Y8.829 E91.70342
G0 F7200 X-4.746 Y8.829
G1 F900 X-8.829 Y4.746 E91.89547
G0 F7200 X-8.829 Y4.181
G1 F900 X-4.181 Y8.829 E92.1141
G0 F7200 X-3.615 Y8.829
G1 F900 X-8.829 Y3.615 E92.35935
G0 F7200 X-8.829 Y3.049
G1 F900 X-3.049 Y8.829 E92.63122
G0 F7200 X-2.484 Y8.829
G1 F900 X-8.829 Y2.484 E92.92967
G0 F7200 X-8.829 Y1.918
G1 F900 X-1.918 Y8.829 E93.25474
G0 F7200 X-1.352 Y8.829
G1 F900 X-8.829 Y1.352 E93.60644
G0 F7200 X-8.829 Y0.787
G1 F900 X-.787 Y8.829 E93.98471
G0 F7200 X-.221 Y8.829
G1 F900 X-8.829 Y0.221 E94.3896
G0 F7200 X-8.829 Y-.344
G1 F900 X0.344 Y8.829 E94.82107
G0 F7200 X0.91 Y8.829
G1 F900 X-8.829 Y-.91 E95.27917
G0 F7200 X-8.829 Y-1.475
G1 F900 X1.475 Y8.829 E95.76383
G0 F7200 X2.041 Y8.829
G1 F900 X-8.829 Y-2.041 E96.27513
G0 F7200 X-8.829 Y-2.607
G1 F900 X2.607 Y8.829 E96.81304
G0 F7200 X3.172 Y8.829
G1 F900 X-8.829 Y-3.172 E97.37753
G0 F7200 X-8.829 Y-3.738
G1 F900 X3.738 Y8.829 E97.96864
G0 F7200 X4.304 Y8.829
G1 F900 X-8.829 Y-4.304 E98.58638
G0 F7200 X-8.829 Y-4.869
G1 F900 X4.869 Y8.829 E99.23069
G0 F7200 X5.435 Y8.829
G1 F900 X-8.829 Y-5.435 E99.90163
G0 F7200 X-8.829 Y-6.001
G1 F900 X6.001 Y8.829 E100.59918
G0 F7200 X6.566 Y8.829
G1 F900 X-8.829 Y-6.566 E101.32332
G0 F7200 X-8.829 Y-7.132
G1 F900 X7.132 Y8.829 E102.07407
G0 F7200 X7.698 Y8.829
G1 F900 X-8.829 Y-7.698 E102.85145
G0 F7200 X-8.829 Y-8.263
G1 F900 X8.263 Y8.829 E103.65541
G0 F7200 X8.829 Y8.829
G1 F900 X-8.829 Y-8.829 E104.48599
G0 F7200 X-8.263 Y-8.829
G1 F900 X8.829 Y8.263 E105.28994
G0 F7200 X8.829 Y7.698
G1 F900 X-7.698 Y-8.829 E106.06732
G0 F7200 X-7.132 Y-8.829
G1 F900 X8.829 Y7.132 E106.81808
G0 F7200 X8.829 Y6.566
G1 F900 X-6.566 Y-8.829 E107.54221
G0 F7200 X-6.001 Y-8.829
G1 F900 X8.829 Y6.001 E108.23977
G0 F7200 X8.829 Y5.435
G1 F900 X-5.435 Y-8.829 E108.9107
G0 F7200 X-4.869 Y-8.829
G1 F900 X8.829 Y4.869 E109.55502
G0 F7200 X8.829 Y4.304
G1 F900 X-4.304 Y-8.829 E110.17275
G0 F7200 X-3.738 Y-8.829
G1 F900 X8.829 Y3.738 E110.76387
G0 F7200 X8.829 Y3.172
G1 F900 X-3.172 Y-8.829 E111.32836
G0 F7200 X-2.607 Y-8.829
G1 F900 X8.829 Y2.607 E111.86627
G0 F7200 X8.829 Y2.041
G1 F900 X-2.041 Y-8.829 E112.37756
G0 F7200 X-1.475 Y-8.829
G1 F900 X8.829 Y1.475 E112.86223
G0 F7200 X8.829 Y0.91
G1 F900 X-.91 Y-8.829 E113.32032
G0 F7200 X-.344 Y-8.829
G1 F900 X8.829 Y0.344 E113.75179
G0 F7200 X8.829 Y-.221
G1 F900 X0.221 Y-8.829 E114.15669
G0 F7200 X0.787 Y-8.829
G1 F900 X8.829 Y-.787 E114.53496
G0 F7200 X8.829 Y-1.352
G1 F900 X1.352 Y-8.829 E114.88665
G0 F7200 X1.918 Y-8.829
G1 F900 X8.829 Y-1.918 E115.21173
G0 F7200 X8.829 Y-2.484
G1 F900 X2.484 Y-8.829 E115.51017
G0 F7200 X3.049 Y-8.829
G1 F900 X8.829 Y-3.049 E115.78205
G0 F7200 X8.829 Y-3.615
G1 F900 X3.615 Y-8.829 E116.0273
G0 F7200 X4.181 Y-8.829
G1 F900 X8.829 Y-4.181 E116.24593
G0 F7200 X8.829 Y-4.746
G1 F900 X4.746 Y-8.829 E116.43798
G0 F7200 X5.312 Y-8.829
G1 F900 X8.829 Y-5.312 E116.60341
G0 F7200 X8.829 Y-5.878
G1 F900 X5.878 Y-8.829 E116.74221
G0 F7200 X6.443 Y-8.829
G1 F900 X8.829 Y-6.443 E116.85444
G0 F7200 X8.829 Y-7.009
G1 F900 X7.009 Y-8.829 E116.94005
G0 F7200 X7.575 Y-8.829
G1 F900 X8.829 Y-7.575 E116.99904
G0 F7200 X8.829 Y-8.14
G1 F900 X8.14 Y-8.829 E117.03144
G0 F7200 X8.706 Y-8.829
G1 F900 X8.829 Y-8.706 E117.03723
;MESH:NONMESH
G0 F600 X8.829 Y-8.706 Z0.9
G0 F7200 X-9.33 Y9.33
G0 X-9.4 Y9.4
;TIME_ELAPSED:204.436382
;LAYER:3
;TYPE:WALL-INNER
;MESH:20mm_cube.stl
G1 F1800 X-9.4 Y-9.4 E117.66252
G1 X9.4 Y-9.4 E118.28781
G1 X9.4 Y9.4 E118.9131
G1 X-9.4 Y9.4 E119.53839
G0 F7200 X-9.8 Y9.8
;TYPE:WALL-OUTER
G1 F900 X-9.8 Y-9.8 E120.19029
G1 X9.8 Y-9.8 E120.84219
G1 X9.8 Y9.8 E121.49409
G1 X-9.8 Y9.8 E122.14599
G0 F7200 X-9.8 Y9.6
G0 X-9.01 Y9.01
;TYPE:SKIN
G1 F900 X-9.01 Y-9.01 E122.74533
G1 X9.01 Y-9.01 E123.34468
G1 X9.01 Y9.01 E123.94403
G1 X-9.01 Y9.01 E124.54338
G0 F7200 X-8.829 Y-8.706
G1 F900 X-8.706 Y-8.829 E124.54916
G0 F7200 X-8.14 Y-8.829
G1 F900 X-8.829 Y-8.14 E124.58157
G0 F7200 X-8.829 Y-7.575
G1 F900 X-7.575 Y-8.829 E124.64055
G0 F7200 X-7.009 Y-8.829
G1 F900 X-8.829 Y-7.009 E124.72616
G0 F7200 X-8.829 Y-6.443
G1 F900 X-6.443 Y-8.829 E124.83839
G0 F7200 X-5.878 Y-8.829
G1 F900 X-8.829 Y-5.878 E124.9772
G0 F7200 X-8.829 Y-5.312
G1 F900 X-5.312 Y-8.829 E125.14263
G0 F7200 X-4.746 Y-8.829
G1 F900 X-8.829 Y-4.746 E125.33468
G0 F7200 X-8.829 Y-4.181
G1 F900 X-4.181 Y-8.829 E125.55331
G0 F7200 X-3.615 Y-8.829
G1 F900 X-8.829 Y-3.615 E125.79856
G0 F7200 X-8.829 Y-3.049
G1 F900 X-3.049 Y-8.829 E126.07043
G0 F7200 X-2.484 Y-8.829
G1 F900 X-8.829 Y-2.484 E126.36888
G0 F7200 X-8.829 Y-1.918
G1 F900 X-1.918 Y-8.829 E126.69395
G0 F7200 X-1.352 Y-8.829
G1 F900 X-8.829 Y-1.352 E127.04565
G0 F7200 X-8.829 Y-.787
G1 F900 X-.787 Y-8.829 E127.42392
G0 F7200 X-.221 Y-8.829
G1 F900 X-8.829 Y-.221 E127.82881
G0 F7200 X-8.829 Y0.344
G1 F900 X0.344 Y-8.829 E128.26028
G0 F7200 X0.91 Y-8.829
G1 F900 X-8.829 Y0.91 E128.71837
G0 F7200 X-8.829 Y1.475
G1 F900 X1.475 Y-8.829 E129.20304
G0 F7200 X2.041 Y-8.829
G1 F900 X-8.829 Y2.041 E129.71433
G0 F7200 X-8.829 Y2.607
G1 F900 X2.607 Y-8.829 E130.25225
G0 F7200 X3.172 Y-8.829
G1 F900 X-8.829 Y3.172 E130.81674
G0 F7200 X-8.829 Y3.738
G1 F900 X3.738 Y-8.829 E131.40785
G0 F7200 X4.304 Y-8.829
G1 F900 X-8.829 Y4.304 E132.02559
G0 F7200 X-8.829 Y4.869
G1 F900 X4.869 Y-8.829 E132.6699
G0 F7200 X5.435 Y-8.829
G1 F900 X-8.829 Y5.435 E133.34084
G0 F7200 X-8.829 Y6.001
G1 F900 X6.001 Y-8.829 E134.03839
G0 F7200 X6.566 Y-8.829
G1 F900 X-8.829 Y6.566 E134.76253
G0 F7200 X-8.829 Y7.132
G1 F900 X7.132 Y-8.829 E135.51328
G0 F7200 X7.698 Y-8.829
G1 F900 X-8.829 Y7.698 E136.29066
G0 F7200 X-8.829 Y8.263
G1 F900 X8.263 Y-8.829 E137.09462
G0 F7200 X8.829 Y-8.829
G1 F900 X-8.829 Y8.829 E137.9252
G0 F7200 X-8.263 Y8.829
G1 F900 X8.829 Y-8.263 E138.72915
G0 F7200 X8.829 Y-7.698
G1 F900 X-7.698 Y8.829 E139.50653
G0 F7200 X-7.132 Y8.829
G1 F900 X8.829 Y-7.132 E140.25729
G0 F7200 X8.829 Y-6.566
G1 F900 X-6.566 Y8.829 E140.98142
G0 F7200 X-6.001 Y8.829
G1 F900 X8.829 Y-6.001 E141.67898
G0 F7200 X8.829 Y-5.435
G1 F900 X-5.435 Y8.829 E142.34991
G0 F7200 X-4.869 Y8.829
G1 F900 X8.829 Y-4.869 E142.99423
G0 F7200 X8.829 Y-4.304
G1 F900 X-4.304 Y8.829 E143.61196
G0 F7200 X-3.738 Y8.829
G1 F900 X8.829 Y-3.738 E144.20307
G0 F7200 X8.829 Y-3.172
G1 F900 X-3.172 Y8.829 E144.76756
G0 F7200 X-2.607 Y8.829
G1 F900 X8.829 Y-2.607 E145.30548
G0 F7200 X8.829 Y-2.041
G1 F900 X-2.041 Y8.829 E145.81677
G0 F7200 X-1.475 Y8.829
G1 F900 X8.829 Y-1.475 E146.30144
G0 F7200 X8.829 Y-.91
G1 F900 X-.91 Y8.829 E146.75953
G0 F7200 X-.344 Y8.829
G1 F900 X8.829 Y-.344 E147.191
G0 F7200 X8.829 Y0.221
G1 F900 X0.221 Y8.829 E147.5959
G0 F7200 X0.787 Y8.829
G1 F900 X8.829 Y0.787 E147.97417
