;FLAVOR:Marlin
;TIME:1606
;Filament used: 1.03001m
;Layer height: 0.2
;MINX:-9.8
;MINY:-9.8
;MINZ:0.3
;MAXX:9.8
;MAXY:9.8
;MAXZ:19.9
;Generated with Cura_SteamEngine 4.6.1
M104 S200
M105
M109 S200
M82 ;absolute extrusion mode
G28 ;Home
G92 E0
G92 E0
G1 F1500 E-6.5
;LAYER_COUNT:99
;LAYER:0
M107
;MESH:20mm_cube.stl
G0 F3600 X-9.4 Y9.4 Z0.3
;TYPE:WALL-INNER
G1 F1500 E0
G1 F900 X-9.4 Y-9.4 E0.93794
G1 X9.4 Y-9.4 E1.87587
G1 X9.4 Y9.4 E2.81381
G1 X-9.4 Y9.4 E3.75174
G0 F3600 X-9.8 Y9.8
;TYPE:WALL-OUTER
G1 F900 X-9.8 Y-9.8 E4.72959
G1 X9.8 Y-9.8 E5.70744
G1 X9.8 Y9.8 E6.68529
G1 X-9.8 Y9.8 E7.66314
G0 F3600 X-9.8 Y9.6
G0 X-9.01 Y9.01
;TYPE:SKIN
G1 F900 X-9.01 Y-9.01 E8.56216
G1 X9.01 Y-9.01 E9.46118
G1 X9.01 Y9.01 E10.3602
G1 X-9.01 Y9.01 E11.25922
G0 F3600 X-8.829 Y8.706
G1 F900 X-8.706 Y8.829 E11.2679
G0 F3600 X-8.14 Y8.829
G1 F900 X-8.829 Y8.14 E11.31651
G0 F3600 X-8.829 Y7.575
G1 F900 X-7.575 Y8.829 E11.40499
G0 F3600 X-7.009 Y8.829
G1 F900 X-8.829 Y7.009 E11.5334
G0 F3600 X-8.829 Y6.443
G1 F900 X-6.443 Y8.829 E11.70174
G0 F3600 X-5.878 Y8.829
G1 F900 X-8.829 Y5.878 E11.90995
G0 F3600 X-8.829 Y5.312
G1 F900 X-5.312 Y8.829 E12.1581
G0 F3600 X-4.746 Y8.829
G1 F900 X-8.829 Y4.746 E12.44617
G0 F3600 X-8.829 Y4.181
G1 F900 X-4.181 Y8.829 E12.77412
G0 F3600 X-3.615 Y8.829
G1 F900 X-8.829 Y3.615 E13.14199
G0 F3600 X-8.829 Y3.049
G1 F900 X-3.049 Y8.829 E13.5498
G0 F3600 X-2.484 Y8.829
G1 F900 X-8.829 Y2.484 E13.99748
G0 F3600 X-8.829 Y1.918
G1 F900 X-1.918 Y8.829 E14.48508
G0 F3600 X-1.352 Y8.829
G1 F900 X-8.829 Y1.352 E15.01263
G0 F3600 X-8.829 Y0.787
G1 F900 X-0.787 Y8.829 E15.58003
G0 F3600 X-0.221 Y8.829
G1 F900 X-8.829 Y0.221 E16.18737
G0 F3600 X-8.829 Y-0.344
G1 F900 X0.344 Y8.829 E16.83458
G0 F3600 X0.91 Y8.829
G1 F900 X-8.829 Y-0.91 E17.52172
G0 F3600 X-8.829 Y-1.475
G1 F900 X1.475 Y8.829 E18.24872
G0 F3600 X2.041 Y8.829
G1 F900 X-8.829 Y-2.041 E19.01566
G0 F3600 X-8.829 Y-2.607
G1 F900 X2.607 Y8.829 E19.82253
G0 F3600 X3.172 Y8.829
G1 F900 X-8.829 Y-3.172 E20.66927
G0 F3600 X-8.829 Y-3.738
G1 F900 X3.738 Y8.829 E21.55594
G0 F3600 X4.304 Y8.829
G1 F900 X-8.829 Y-4.304 E22.48254
G0 F3600 X-8.829 Y-4.869
G1 F900 X4.869 Y8.829 E23.44901
G0 F3600 X5.435 Y8.829
G1 F900 X-8.829 Y-5.435 E24.45541
G0 F3600 X-8.829 Y-6.001
G1 F900 X6.001 Y8.829 E25.50175
G0 F3600 X6.566 Y8.829
G1 F900 X-8.829 Y-6.566 E26.58795
G0 F3600 X-8.829 Y-7.132
G1 F900 X7.132 Y8.829 E27.71408
G0 F3600 X7.698 Y8.829
G1 F900 X-8.829 Y-7.698 E28.88015
G0 F3600 X-8.829 Y-8.263
G1 F900 X8.263 Y8.829 E30.08608
G0 F3600 X8.829 Y8.829
G1 F900 X-8.829 Y-8.829 E31.33195
G0 F3600 X-8.263 Y-8.829
G1 F900 X8.829 Y8.263 E32.53788
G0 F3600 X8.829 Y7.698
G1 F900 X-7.698 Y-8.829 E33.70395
G0 F3600 X-7.132 Y-8.829
G1 F900 X8.829 Y7.132 E34.83009
G0 F3600 X8.829 Y6.566
G1 F900 X-6.566 Y-8.829 E35.91629
G0 F3600 X-6.001 Y-8.829
G1 F900 X8.829 Y6.001 E36.96262
G0 F3600 X8.829 Y5.435
G1 F900 X-5.435 Y-8.829 E37.96903
G0 F3600 X-4.869 Y-8.829
G1 F900 X8.829 Y4.869 E38.93549
G0 F3600 X8.829 Y4.304
G1 F900 X-4.304 Y-8.829 E39.8621
G0 F3600 X-3.738 Y-8.829
G1 F900 X8.829 Y3.738 E40.74877
G0 F3600 X8.829 Y3.172
G1 F900 X-3.172 Y-8.829 E41.5955
G0 F3600 X-2.607 Y-8.829
G1 F900 X8.829 Y2.607 E42.40237
G0 F3600 X8.829 Y2.041
G1 F900 X-2.041 Y-8.829 E43.16931
G0 F3600 X-1.475 Y-8.829
G1 F900 X8.829 Y1.475 E43.89632
G0 F3600 X8.829 Y0.91
G1 F900 X-0.91 Y-8.829 E44.58345
G0 F3600 X-0.344 Y-8.829
G1 F900 X8.829 Y0.344 E45.23066
G0 F3600 X8.829 Y-0.221
G1 F900 X0.221 Y-8.829 E45.838
G0 F3600 X0.787 Y-8.829
G1 F900 X8.829 Y-0.787 E46.40541
G0 F3600 X8.829 Y-1.352
G1 F900 X1.352 Y-8.829 E46.93295
G0 F3600 X1.918 Y-8.829
G1 F900 X8.829 Y-1.918 E47.42056
G0 F3600 X8.829 Y-2.484
G1 F900 X2.484 Y-8.829 E47.86823
G0 F3600 X3.049 Y-8.829
G1 F900 X8.829 Y-3.049 E48.27604
G0 F3600 X8.829 Y-3.615
G1 F900 X3.615 Y-8.829 E48.64392
G0 F3600 X4.181 Y-8.829
G1 F900 X8.829 Y-4.181 E48.97186
G0 F3600 X8.829 Y-4.746
G1 F900 X4.746 Y-8.829 E49.25994
G0 F3600 X5.312 Y-8.829
G1 F900 X8.829 Y-5.312 E49.50808
G0 F3600 X8.829 Y-5.878
G1 F900 X5.878 Y-8.829 E49.71629
G0 F3600 X6.443 Y-8.829
G1 F900 X8.829 Y-6.443 E49.88463
G0 F3600 X8.829 Y-7.009
G1 F900 X7.009 Y-8.829 E50.01304
G0 F3600 X7.575 Y-8.829
G1 F900 X8.829 Y-7.575 E50.10152
G0 F3600 X8.829 Y-8.14
G1 F900 X8.14 Y-8.829 E50.15013
G0 F3600 X8.706 Y-8.829
G1 F900 X8.829 Y-8.706 E50.15881
;MESH:NONMESH
G0 F600 X8.829 Y-8.706 Z0.5
G0 F3600 X-9.33 Y9.33
G0 X-9.4 Y9.4
;TIME_ELAPSED:70.995136
;LAYER:1
M106 S255
;TYPE:WALL-INNER
;MESH:20mm_cube.stl
G1 F1350 X-9.324364824662206 Y-9.475031430903128 E50.7841
G1 X9.475031430903128 Y-9.324364824662206 E51.40939
G1 X9.324364824662206 Y9.475031430903128 E52.03468
G1 X-9.475031430903128 Y9.324364824662206 E52.65997
G0 F5400 X-9.87822425775007 Y9.721146306562726
;TYPE:WALL-OUTER
G1 F900 X-9.721146306562726 Y-9.87822425775007 E53.31187
G1 X9.87822425775007 Y-9.721146306562726 E53.96377
G1 X9.721146306562726 Y9.87822425775007 E54.61567
G1 X-9.87822425775007 Y9.721146306562726 E55.26757
G0 F5400 X-9.876621421513464 Y9.52115272937586
G0 X-9.081918424727359 Y8.937502879809198
;TYPE:SKIN
G1 F900 X-8.937502879809198 Y-9.081918424727359 E55.86692
G1 X9.081918424727359 Y-8.937502879809198 E56.46626
G1 X8.937502879809198 Y9.081918424727359 E57.06561
G1 X-9.081918424727359 Y8.937502879809198 E57.66496
G0 F5400 X-8.758945003534727 Y-8.776477620609196
G1 F900 X-8.634963209279292 Y-8.898487926293605 E57.67075
G0 F5400 X-8.068981385840463 Y-8.893951899744012
G1 F900 X-8.76348103008432 Y-8.210495797170367 E57.70315
G0 F5400 X-8.76800904245273 Y-7.645513941617472
G1 F900 X-7.50399953028757 Y-8.889423887375601 E57.76214
G0 F5400 X-6.938017706848742 Y-8.884887860826007
G1 F900 X-8.772545069002325 Y-7.079532118178644 E57.84775
G0 F5400 X-8.77708109555192 Y-6.513550294739814
G1 F900 X-6.372035883409912 Y-8.880351834276413 E57.95998
G0 F5400 X-5.807054027857018 Y-8.875823821908003
G1 F900 X-8.781609107920328 Y-5.9485684391869205 E58.09878
G0 F5400 X-8.786145134469923 Y-5.382586615748092
G1 F900 X-5.24107220441819 Y-8.871287795358409 E58.26421
G0 F5400 X-4.675090380979361 Y-8.866751768808815
G1 F900 X-8.790681161019517 Y-4.816604792309263 E58.45626
G0 F5400 X-8.795209173387928 Y-4.251622936756369
G1 F900 X-4.110108525426466 Y-8.862223756440404 E58.67489
G0 F5400 X-3.5441267019876377 Y-8.857687729890811
G1 F900 X-8.79974519993752 Y-3.685641113317541 E58.92014
G0 F5400 X-8.804281226487115 Y-3.119659289878712
G1 F900 X-2.9781448785488087 Y-8.853151703341217 E59.19201
G0 F5400 X-2.4131630229959145 Y-8.848623690972806
G1 F900 X-8.808809238855526 Y-2.554677434325818 E59.49046
G0 F5400 X-8.813345265405118 Y-1.9886956108869893
G1 F900 X-1.847181199557086 Y-8.844087664423213 E59.81554
G0 F5400 X-1.2811993761182574 Y-8.839551637873619
G1 F900 X-8.817881291954713 Y-1.4227137874481608 E60.16723
G0 F5400 X-8.822409304323124 Y-0.8577319318952663
G1 F900 X-0.7162175205653631 Y-8.835023625505208 E60.5455
G0 F5400 X-0.15023569712653445 Y-8.830487598955616
G1 F900 X-8.826945330872716 Y-0.29175010845643773 E60.9504
G0 F5400 X-8.831473343241127 Y0.27323174709645653
G1 F900 X0.4147461584263598 Y-8.825959586587205 E61.38187
G0 F5400 X0.9807279818651884 Y-8.82142356003761
G1 F900 X-8.836009369790721 Y0.8392135705352852 E61.83996
G0 F5400 X-8.840537382159132 Y1.4041954260881795
G1 F900 X1.5457098374180829 Y-8.8168955476692 E62.32463
G0 F5400 X2.1116916608569114 Y-8.812359521119607
G1 F900 X-8.845073408708725 Y1.970177249527008 E62.83592
G0 F5400 X-8.84960943525832 Y2.536159072965837
G1 F900 X2.6776734842957404 Y-8.807823494570012 E63.37383
G0 F5400 X3.2426553398486346 Y-8.803295482201602
G1 F900 X-8.85413744762673 Y3.1011409285187312 E63.93832
G0 F5400 X-8.858673474176323 Y3.6671227519575593
G1 F900 X3.8086371632874627 Y-8.798759455652009 E64.52944
G0 F5400 X4.374618986726292 Y-8.794223429102415
G1 F900 X-8.863209500725917 Y4.233104575396389 E65.14717
G0 F5400 X-8.867737513094328 Y4.798086430949283
G1 F900 X4.9396008422791855 Y-8.789695416734004 E65.79148
G0 F5400 X5.505582665718014 Y-8.78515939018441
G1 F900 X-8.872273539643922 Y5.364068254388111 E66.46242
G0 F5400 X-8.876809566193515 Y5.93005007782694
G1 F900 X6.0715644891568425 Y-8.780623363634817 E67.15998
G0 F5400 X6.636546344709736 Y-8.776095351266406
G1 F900 X-8.881337578561926 Y6.495031933379834 E67.88411
G0 F5400 X-8.88587360511152 Y7.061013756818663
G1 F900 X7.202528168148565 Y-8.771559324716812 E68.63487
G0 F5400 X7.768509991587394 Y-8.767023298167219
G1 F900 X-8.890409631661113 Y7.626995580257492 E69.41225
G0 F5400 X-8.894937644029524 Y8.191977435810385
G1 F900 X8.333491847140289 Y-8.762495285798808 E70.2162
G0 F5400 X8.899473670579118 Y-8.757959259249214
G1 F900 X-8.899473670579118 Y8.757959259249214 E71.04678
G0 F5400 X-8.333491847140289 Y8.762495285798808
G1 F900 X8.894937644029524 Y-8.191977435810385 E71.85073
G0 F5400 X8.890409631661113 Y-7.626995580257492
G1 F900 X-7.768509991587394 Y8.767023298167219 E72.62811
G0 F5400 X-7.202528168148565 Y8.771559324716812
G1 F900 X8.88587360511152 Y-7.061013756818663 E73.37887
G0 F5400 X8.881337578561926 Y-6.495031933379834
G1 F900 X-6.636546344709736 Y8.776095351266406 E74.103
G0 F5400 X-6.0715644891568425 Y8.780623363634817
G1 F900 X8.876809566193515 Y-5.93005007782694 E74.80056
G0 F5400 X8.872273539643922 Y-5.364068254388111
G1 F900 X-5.505582665718014 Y8.78515939018441 E75.4715
G0 F5400 X-4.9396008422791855 Y8.789695416734004
G1 F900 X8.867737513094328 Y-4.798086430949283 E76.11581
G0 F5400 X8.863209500725917 Y-4.233104575396389
G1 F900 X-4.374618986726292 Y8.794223429102415 E76.73354
G0 F5400 X-3.8086371632874627 Y8.798759455652009
G1 F900 X8.858673474176323 Y-3.6671227519575593 E77.32466
G0 F5400 X8.85413744762673 Y-3.1011409285187312
G1 F900 X-3.2426553398486346 Y8.803295482201602 E77.88915
G0 F5400 X-2.6776734842957404 Y8.807823494570012
G1 F900 X8.84960943525832 Y-2.536159072965837 E78.42706
G0 F5400 X8.845073408708725 Y-1.970177249527008
G1 F900 X-2.1116916608569114 Y8.812359521119607 E78.93835
G0 F5400 X-1.5457098374180829 Y8.8168955476692
G1 F900 X8.840537382159132 Y-1.4041954260881795 E79.42302
G0 F5400 X8.836009369790721 Y-0.8392135705352852
G1 F900 X-0.9807279818651884 Y8.82142356003761 E79.88112
G0 F5400 X-0.4147461584263598 Y8.825959586587205
G1 F900 X8.831473343241127 Y-0.27323174709645653 E80.31258
G0 F5400 X8.826945330872716 Y0.29175010845643773
G1 F900 X0.15023569712653445 Y8.830487598955616 E80.71748
G0 F5400 X0.7162175205653631 Y8.835023625505208
G1 F900 X8.822409304323124 Y0.8577319318952663 E81.09575
G0 F5400 X8.817881291954713 Y1.4227137874481608
G1 F900 X1.2811993761182574 Y8.839551637873619 E81.44745
G0 F5400 X1.847181199557086 Y8.844087664423213
G1 F900 X8.813345265405118 Y1.9886956108869893 E81.77252
G0 F5400 X8.808809238855526 Y2.554677434325818
G1 F900 X2.4131630229959145 Y8.848623690972806 E82.07097
G0 F5400 X2.9781448785488087 Y8.853151703341217
G1 F900 X8.804281226487115 Y3.119659289878712 E82.34284
G0 F5400 X8.79974519993752 Y3.685641113317541
G1 F900 X3.5441267019876377 Y8.857687729890811 E82.58809
G0 F5400 X4.110108525426466 Y8.862223756440404
G1 F900 X8.795209173387928 Y4.251622936756369 E82.80672
G0 F5400 X8.790681161019517 Y4.816604792309263
G1 F900 X4.675090380979361 Y8.866751768808815 E82.99877
G0 F5400 X5.24107220441819 Y8.871287795358409
G1 F900 X8.786145134469923 Y5.382586615748092 E83.1642
G0 F5400 X8.781609107920328 Y5.9485684391869205
G1 F900 X5.807054027857018 Y8.875823821908003 E83.30301
G0 F5400 X6.372035883409912 Y8.880351834276413
G1 F900 X8.77708109555192 Y6.513550294739814 E83.41524
G0 F5400 X8.772545069002325 Y7.079532118178644
G1 F900 X6.938017706848742 Y8.884887860826007 E83.50084
G0 F5400 X7.50399953028757 Y8.889423887375601
G1 F900 X8.76800904245273 Y7.645513941617472 E83.55983
G0 F5400 X8.76348103008432 Y8.210495797170367
G1 F900 X8.068981385840463 Y8.893951899744012 E83.59224
G0 F5400 X8.634963209279292 Y8.898487926293605
G1 F900 X8.758945003534727 Y8.776477620609196 E83.59802
;MESH:NONMESH
G0 F600 X8.758945003534727 Y8.776477620609196 Z0.7
G0 F5400 X-9.404472686204912 Y9.254928065329615
G0 X-9.475031430903128 Y9.324364824662206
;TIME_ELAPSED:138.211396
;LAYER:2
;TYPE:WALL-INNER
;MESH:20mm_cube.stl
G1 F1800 X-9.24813076279572 Y-9.549454298242987 E84.22331
G1 X9.549454298242987 Y-9.24813076279572 E84.8486
G1 X9.24813076279572 Y9.549454298242987 E85.47389
G1 X-9.549454298242987 Y9.24813076279572 E86.09918
G0 F7200 X-9.95581405561503 Y9.641668242063623
;TYPE:WALL-OUTER
G1 F900 X-9.641668242063623 Y-9.95581405561503 E86.75108
G1 X9.95581405561503 Y-9.641668242063623 E87.40298
G1 X9.641668242063623 Y9.95581405561503 E88.05488
G1 X-9.95581405561503 Y9.641668242063623 E88.70678
G0 F7200 X-9.952608486088995 Y9.441693932903636
G0 X-9.153253534805245 Y8.864431720509515
;TYPE:SKIN
G1 F900 X-8.864431720509515 Y-9.153253534805245 E89.30613
G1 X9.153253534805245 Y-8.864431720509515 E89.90547
G1 X8.864431720509515 Y9.153253534805245 E90.50482
G1 X-9.153253534805245 Y8.864431720509515 E91.10417
G0 F7200 X-8.967404319335886 Y8.563371811007396
G1 F900 X-8.846391544461003 Y8.6883274363993 E91.10995
G0 F7200 X-8.280464249538245 Y8.697399198157978
G1 F900 X-8.958332557577208 Y7.997444516084637 E91.14236
G0 F7200 X-8.949276823666159 Y7.432517092707675
G1 F900 X-7.715536826161284 Y8.706454932069027 E91.20135
G0 F7200 X-7.149609531238522 Y8.715526693827705
G1 F900 X-8.94020506190748 Y6.866589797784914 E91.28695
G0 F7200 X-8.931133300148803 Y6.300662502862152
G1 F900 X-6.58368223631576 Y8.724598455586383 E91.39918
G0 F7200 X-6.0187548129388 Y8.733654189497432
G1 F900 X-8.922077566237753 Y5.735735079485192 E91.53799
G0 F7200 X-8.913005804479075 Y5.169807784562431
G1 F900 X-5.452827518016039 Y8.74272595125611 E91.70342
G0 F7200 X-4.886900223093278 Y8.751797713014788
G1 F900 X-8.903934042720397 Y4.6038804896396694 E91.89547
G0 F7200 X-8.89487830880935 Y4.0389530662627084
G1 F900 X-4.321972799716317 Y8.760853446925836 E92.1141
G0 F7200 X-3.7560455047935557 Y8.769925208684516
G1 F900 X-8.88580654705067 Y3.4730257713399473 E92.35935
G0 F7200 X-8.876734785291992 Y2.907098476417186
G1 F900 X-3.1901182098707945 Y8.778996970443194 E92.63122
G0 F7200 X-2.6251907864938335 Y8.788052704354241
G1 F900 X-8.867679051380945 Y2.342171053040225 E92.92967
G0 F7200 X-8.858607289622267 Y1.776243758117464
G1 F900 X-2.059263491571072 Y8.797124466112919 E93.25474
G0 F7200 X-1.493336196648311 Y8.806196227871599
G1 F900 X-8.849535527863587 Y1.210316463194703 E93.60644
G0 F7200 X-8.84047979395254 Y0.6453890398177419
G1 F900 X-0.9284087732713499 Y8.815251961782646 E93.98471
G0 F7200 X-0.3624814783485888 Y8.824323723541324
G1 F900 X-8.831408032193862 Y0.07946174489498081 E94.3896
G0 F7200 X-8.822352298282814 Y-0.4854656784819803
G1 F900 X0.20244594502837232 Y8.833379457452372 E94.82107
G0 F7200 X0.7683732399511335 Y8.842451219211052
G1 F900 X-8.813280536524134 Y-1.0513929734047416 E95.27917
G0 F7200 X-8.804224802613087 Y-1.6163203967817026
G1 F900 X1.3333006633280946 Y8.8515069531221 E95.76383
G0 F7200 X1.8992279582508556 Y8.860578714880777
G1 F900 X-8.795153040854409 Y-2.1822476917044638 E96.27513
G0 F7200 X-8.78608127909573 Y-2.748174986627225
G1 F900 X2.4651552531736165 Y8.869650476639455 E96.81304
G0 F7200 X3.0300826765505775 Y8.878706210550504
G1 F900 X-8.777025545184681 Y-3.313102410004186 E97.37753
G0 F7200 X-8.767953783426004 Y-3.879029704926947
G1 F900 X3.5960099714733387 Y8.887777972309182 E97.96864
G0 F7200 X4.1619372663961 Y8.89684973406786
G1 F900 X-8.758882021667326 Y-4.444956999849708 E98.58638
G0 F7200 X-8.749826287756276 Y-5.009884423226669
G1 F900 X4.726864689773061 Y8.90590546797891 E99.23069
G0 F7200 X5.292791984695821 Y8.914977229737588
G1 F900 X-8.740754525997598 Y-5.5758117181494296 E99.90163
G0 F7200 X-8.73168276423892 Y-6.141739013072192
G1 F900 X5.858719279618583 Y8.924048991496266 E100.59918
G0 F7200 X6.423646702995544 Y8.933104725407313
G1 F900 X-8.722627030327873 Y-6.706666436449153 E101.32332
G0 F7200 X-8.713555268569193 Y-7.272593731371913
G1 F900 X6.9895739979183045 Y8.942176487165993 E102.07407
